X: 3
T: Aino Kchume
F: http://www.youtube.com/watch?v=kw4iwrbcsjA
O: Assyria
M: 4/4
L: 1/8
Q: 1/4=180
K:Am
%%MIDI gchord f2fff2f2
"A" z8     | z8         |\
G2 A2 G2 c2|cABG A2 c2  |cABG A4 |
G2 A2 G2 c2|cABG A2 c2  |cABG A4 |\
G2 A2 G2 d2| cB BA A2 d2|cB BA A4|



